icons/svg/shaders/h_topo_scrub.svg

<svg width="30" height="38" viewBox="0 0 30 38" fill="none" xmlns="http://www.w3.org/2000/svg">
<path d="M30 0H0V38H30V0Z" fill="#B3E3B5"/>
<path d="M7.40217 11.6294C8.2019 11.4132 8.67497 10.5897 8.4588 9.78998C8.24263 8.99025 7.41909 8.51718 6.61936 8.73335C5.81963 8.94952 5.34656 9.77306 5.56273 10.5728C5.7789 11.3725 6.60244 11.8456 7.40217 11.6294Z" stroke="#639272" stroke-linecap="square"/>
<path d="M6.22795 7.28525C6.7611 7.14114 7.07648 6.59211 6.93237 6.05896C6.78826 5.52581 6.23923 5.21043 5.70608 5.35454C5.17293 5.49865 4.85755 6.04768 5.00166 6.58083C5.14577 7.11399 5.6948 7.42936 6.22795 7.28525Z" fill="#639272"/>
<path d="M11.1537 12.1521C11.6868 12.008 12.0022 11.4589 11.8581 10.9258C11.714 10.3926 11.1649 10.0773 10.6318 10.2214C10.0986 10.3655 9.78327 10.9145 9.92738 11.4477C10.0715 11.9808 10.6205 12.2962 11.1537 12.1521Z" fill="#639272"/>
<path d="M4.49629 14.0041C5.02945 13.86 5.34482 13.311 5.20071 12.7778C5.0566 12.2447 4.50757 11.9293 3.97442 12.0734C3.44127 12.2175 3.12589 12.7666 3.27 13.2997C3.41411 13.8329 3.96314 14.1482 4.49629 14.0041Z" fill="#639272"/>
<path d="M18.859 27.023C19.5456 27.4865 20.478 27.3056 20.9415 26.619C21.405 25.9324 21.2241 25 20.5375 24.5365C19.8509 24.073 18.9185 24.2539 18.455 24.9405C17.9915 25.6271 18.1724 26.5595 18.859 27.023Z" stroke="#639272" stroke-linecap="square"/>
<path d="M21.3768 23.2932C21.8345 23.6022 22.4561 23.4816 22.7651 23.0239C23.0741 22.5661 22.9535 21.9446 22.4958 21.6356C22.038 21.3265 21.4165 21.4471 21.1075 21.9049C20.7985 22.3626 20.919 22.9842 21.3768 23.2932Z" fill="#639272"/>
<path d="M20.9181 30.2028C21.3758 30.5118 21.9974 30.3912 22.3064 29.9334C22.6154 29.4757 22.4948 28.8541 22.0371 28.5451C21.5793 28.2361 20.9578 28.3567 20.6487 28.8144C20.3397 29.2722 20.4603 29.8938 20.9181 30.2028Z" fill="#639272"/>
<path d="M15.162 26.3783C15.6197 26.6873 16.2413 26.5667 16.5503 26.109C16.8593 25.6512 16.7387 25.0296 16.281 24.7206C15.8232 24.4116 15.2017 24.5322 14.8926 24.99C14.5836 25.4477 14.7042 26.0693 15.162 26.3783Z" fill="#639272"/>
</svg>

<svg xmlns="http://www.w3.org/2000/svg" width="30" height="38" fill="none"><path d="M7.402 11.63c.8-.217 1.273-1.04 1.057-1.84-.218-.8-1.04-1.273-1.84-1.057-.8.217-1.274 1.04-1.058 1.84.216.8 1.04 1.273 1.84 1.056z" stroke="#639272" stroke-linecap="square"/><path d="M6.228 7.285c.533-.144.848-.693.704-1.226-.144-.535-.693-.85-1.226-.706-.533.144-.848.693-.704 1.226.144.534.693.85 1.226.705zm4.926 4.867c.533-.144.848-.693.704-1.226-.144-.533-.693-.85-1.226-.705-.533.147-.85.695-.705 1.23.145.532.694.847 1.227.703zm-6.658 1.852c.533-.144.85-.693.705-1.226-.142-.533-.69-.85-1.225-.705-.533.144-.848.694-.704 1.227.145.533.694.848 1.227.704z" fill="#639272"/><path d="M18.86 27.023c.686.463 1.618.283 2.082-.404.463-.69.282-1.62-.404-2.085-.687-.463-1.62-.282-2.083.404-.463.686-.283 1.62.404 2.082z" stroke="#639272" stroke-linecap="square"/><path d="M21.377 23.293c.457.31 1.08.19 1.388-.27.31-.457.188-1.078-.27-1.387-.457-.31-1.08-.19-1.387.27-.31.457-.19 1.078.27 1.387zm-.46 6.91c.46.31 1.08.188 1.39-.27.31-.457.19-1.08-.27-1.388-.458-.31-1.08-.188-1.388.27-.31.457-.19 1.08.267 1.388zm-5.755-3.825c.458.31 1.08.19 1.388-.27.31-.457.19-1.078-.27-1.387-.457-.307-1.078-.187-1.387.27-.31.46-.19 1.08.27 1.39z" fill="#639272"/></svg>
